X: 30
T:Green Hills of Islay
R:
M:3/4
L:1/4
K:D
|FFE| DFA|dcB| A2D|FFE| DFA|BAF |E2A|
ABA |ABc|ded| B2c|dAd| cBA|AEF| D2D||
